X:271
T:Fiddler's Joy
T:Pipe Strathspey, 1x through
C:Trad.
S:Scots Guards I #295
M:C
L:1/8
R:Strathspey
Q:1/4=100
K:D
A/|{c}d2 f<a A/A/A/a/ f/e/d|c2 A>ce>f g/f/e|{c}d2 f<a A/A/A/a/ f/e/d|
c/c/A g/f/e {c}d2 d3/2:|A/|{c}d>ef>d f<af>d|g>Ae>d c<e A/B/c|
{c}d>ef>d f<af>d|c/c/A g/f/e {c}d2 d>A|{c}d>ef>d f<af>d|
g>Ae>d c<e e/f/g|a/g/f g/f/e f/e/d e/f/g|c/c/A g/f/e {c}d2 d3/2||
A/|f>da>f {c}d<A {c}d>f|e>A c/c/A c/eA/ c/c/A|f>da>f {c}d<A {c}d>f|
e>A g/f/e {c}d2 d3/2:|A/|{c}d>fa>f {c}d<af>d|c/c/A e>f g>e c/c/A|
{c}d>fa>f {c}d<af>d|c/c/A g/f/e {c}d2 d>A|{c}d>fa>f {c}d<af>d|
c/c/A e>f g>e c/c/A|a/g/f g/f/e f/e/d e/f/g|c/c/A g/f/e {c}d2 d3/2|]

